X:85
T: Tom Dillane's
S: M.Mulvihill
Z: B.Black
R: hornpipe
M: 4/4
L: 1/8
K: D
AG | (3FED FA d2 dA | (3Bcd ef g2 g2 | fafd eged |\
c2 A2 ABAG |
(3FED FA d2 dA | (3Bcd ef g2 g2 | fafd (3efg ec |\
d2 d2 d2 :|
fg | afdf afdf | bgeg bgeg | afdf afdf | e2 A2 ABAG |
(3FED FA d2 dA | (3Bcd ef g2 g2 | fafd egec |\
d2 d2 d2 :|
